X:249
T:Knot,The. (p)1686.PLFD.249
M:4/4
L:1/8
Q:1/2=100
S:Playford, Dancing Master,7th Ed.,1686
O:England
H:1686.
Z:Chris Partington.
K:G
C4B,2A,2|(B,C)(DB,)G,2D2|G4F2E2|F2A4Bc|
d4c2B2|(AB)(cA)F4|(EB)(cA)F2(ED)|G4G,4:|
|:C3D (ED)(EF)|(EF)G2D4|G2B,2B,2A,G,|A,6AB|
c3d (ed)(ef)|(ef)g2d4|B2(cA)A2G2|1G8:|2G6|
|:d2|=f4e2d2|e2(cB)c2BA|a2e2efg2|f6(de/f/)|
g2(fe) (dc)(BA)|=f2(ed) (cB)(AG)|F2G2AGF2|1G6:|2G8|]
